usr/share/icons/biglinux-icons-material-dark/22/actions/snap-bounding-box-corners.svg

<svg xmlns="http://www.w3.org/2000/svg" viewBox="0 0 22 22">
<defs id="defs3051">
<style id="current-color-scheme" type="text/css">
.ColorScheme-Text{color:#dedede}.ColorScheme-Highlight{color:#3daee9}
</style>
</defs>
<path d="M3 3v3h1v1h1V6h1V5h1V4H6V3zm13 0v1h-1v1h1v1h1v1h1V6h1V3zM4 4h1v1H4zm5 0v1h1V4zm3 0v1h1V4zm5 0h1v1h-1zM4 9v1h1V9zm13 0v1h1V9zM4 12v1h1v-1zm13 0v1h1v-1zM4 15v1H3v3h3v-1h1v-1H6v-1H5v-1zm0 2h1v1H4zm5 0v1h1v-1zm3 0v1h1v-1z" class="ColorScheme-Text" style="fill:currentColor;fill-opacity:1;stroke:none"/>
<path d="M15 15v4h4v-4zm1 1h2v2h-2z" class="ColorScheme-Highlight" style="fill:currentColor;fill-opacity:1;stroke:none"/>
</svg>

<svg xmlns="http://www.w3.org/2000/svg" viewBox="0 0 22 22">
  <defs id="defs3051">
    <style type="text/css" id="current-color-scheme">
      .ColorScheme-Text {
        color:#dedede;
      }
      .ColorScheme-Highlight {
        color:#3daee9;
      }
      </style>
  </defs>
 <path 
     style="fill:currentColor;fill-opacity:1;stroke:none" 
     d="M 3 3 L 3 6 L 4 6 L 4 7 L 5 7 L 5 6 L 6 6 L 6 5 L 7 5 L 7 4 L 6 4 L 6 3 L 3 3 z M 16 3 L 16 4 L 15 4 L 15 5 L 16 5 L 16 6 L 17 6 L 17 7 L 18 7 L 18 6 L 19 6 L 19 3 L 16 3 z M 4 4 L 5 4 L 5 5 L 4 5 L 4 4 z M 9 4 L 9 5 L 10 5 L 10 4 L 9 4 z M 12 4 L 12 5 L 13 5 L 13 4 L 12 4 z M 17 4 L 18 4 L 18 5 L 17 5 L 17 4 z M 4 9 L 4 10 L 5 10 L 5 9 L 4 9 z M 17 9 L 17 10 L 18 10 L 18 9 L 17 9 z M 4 12 L 4 13 L 5 13 L 5 12 L 4 12 z M 17 12 L 17 13 L 18 13 L 18 12 L 17 12 z M 4 15 L 4 16 L 3 16 L 3 19 L 6 19 L 6 18 L 7 18 L 7 17 L 6 17 L 6 16 L 5 16 L 5 15 L 4 15 z M 4 17 L 5 17 L 5 18 L 4 18 L 4 17 z M 9 17 L 9 18 L 10 18 L 10 17 L 9 17 z M 12 17 L 12 18 L 13 18 L 13 17 L 12 17 z "
     class="ColorScheme-Text"
     />
 <path 
     style="fill:currentColor;fill-opacity:1;stroke:none" 
     d="M 15 15 L 15 19 L 19 19 L 19 15 L 15 15 z M 16 16 L 18 16 L 18 18 L 16 18 L 16 16 z "
     class="ColorScheme-Highlight"
     />
</svg>
